X:1
T:The scarlet runners
T:The scarlet runners
T:Mr. Popple of Ippleton
T:Paul Rubens
T:Percy Greenbank
C:Paul Rubens
Z:Percy Greenbank
%%score [ 1 2 ] { ( 3 5 ) | ( 4 6 ) }
L:1/8
Q:1/4=90
M:2/4
K:Bb
V:1 treble nm="Sopran"
V:2 treble nm="Alt"
V:3 treble nm="Piano"
V:5 treble 
V:4 bass 
V:6 bass 
V:1
"^Allegro" z4 | z4 | z4 | z4 | z4 | z4 | z4 | z4 | z4 | z4 | z4 | z4 | z4 | z4 | z4 | z4 || %16
w: ||||||||||||||||
 F z ^F z | G z ^G z | A e c d | B4 | B G2 B | F4 | B G2 B | F4 | F z ^F z | G z ^G z | A e c d | %27
w: Lit- tle|Scar- let|Run- ner girls are|we,|All in a|row \-|That's how we|grow.|When you've|heard our|names, of course you'll|
 B4 | B G2 B | A4 | B G2 B | A4 | d z ^c z | ^F z A z | =B ^c B ^F | A4 | ^G z A z | =B z ^F z | %38
w: see,|Just what it|means, \-|We're full of|beans.|French beans,|broad beans,|there are lots of|these,|But we|mix with|
 A z =E z | z4 | d z ^c z | ^F z A z | _B G ^F A | G4 | =c z ^c z | d z =c z | c z F z | z4 | %48
w: nei- ther,||And we're|not re-|la- ted, if you|please,|To the|"has- beens"|ei- ther!||
 f3/2 d/ c B | G B2 F | D E =E G | F3 C/ D/ | E D E C/ D/ | E D E =E/ E/ | F/ F/ ^F G d | d2 c2 | %56
w: We're the Scar- let|Run- ners, The|smart- est girls in|town; We can|run up hills, We can|run up bills, And the|o- ther girls run us|down. oh,|
 f3/2 d/ c B | G B2 F | D E =E G | F3 ^F | G3/2 g/ g f | e G2 d | d c/ A/ F F | B4 | z4 | z4 || %66
w: We're tip- top a-|one- ers, The|men make such a|fuss, Though|we're the Scar- let|Run- ners, Please|don't run a- way from|us!|||
 F z ^F z | G z ^G z | A e c d | B4 | B G2 B | F4 | B G2 B | F4 | F z ^F z | G z ^G z | A e c d | %77
w: We are|ve- ry,|ve- ry much a-|live,|And, let us|state|Quite up- to-|date.|If you|ask how|ma- ny beans make|
 B4 | B G2 B | A4 | B G2 B | A4 | d z ^c z | ^F z A z | =B ^c B ^F | A4 | ^G z A z | =B z ^F z | %88
w: five,|Oh, we can|tell|That ve- ry|well.|Scar- let|Run- ners,|can- not be sur-|passed|For their|ra- pid|
 A z =E z | z4 | d z ^c z | ^F z A z | _B G ^F A | G4 | =c z ^c z | d z =c z | c z =F z | z4 || %98
w: grow- ing.||Though you|may think|we're a tri- fle|fast,|Still we|keep things|go- ing!||
 f3/2 d/ c B | G B2 F | D E =E G | F3 C/ D/ | E D E C/ D/ | E D E =E/ E/ | F/ F/ ^F G d | d2 c2 | %106
w: We're the Scar- let|Run- ners, The|smart- est girls in|town; We can|run up hills, We can|run up bills, And the|o- ther girls run us|down. oh,|
 f3/2 d/ c B | G B2 F | D E =E G | F3 ^F | G3/2 g/ g f | e G2 d | d c/ A/ F F | B4 || z4 | z4 | %116
w: We're tip- top a-|one- ers, The|men make such a|fuss, Tho'|we're the Scar- let|Run- ners, Please|don't run a- way from|us!|||
 z4 | z4 | z4 | z4 | z4 | z4 | z4 | z4 | z4 | z4 | z4 | z4 | z4 | z4 | z4 | z4 | z4 | z4 | z4 | %135
w: |||||||||||||||||||
 z4 | z4 | z4 | z4 | z4 | z4 | z4 | z4 | z4 | z4 | z4 | z4 | z4 | z4 | z4 | z4 | z4 | z4 | z4 | %154
w: |||||||||||||||||||
 z4 | z4 | z4 | z4 | z4 | z4 | z4 | z4 | z4 | z4 | z4 | z4 | z4 | z4 | z4 | z4 | z4 | z4 | z4 | %173
w: |||||||||||||||||||
 z4 | z4 | z4 | z4 | z4 |] %178
w: |||||
V:2
 z4 | z4 | z4 | z4 | z4 | z4 | z4 | z4 | z4 | z4 | z4 | z4 | z4 | z4 | z4 | z4 || D z D z | %17
w: ||||||||||||||||Lit- tle|
 D z D z | E E E E | D4 | B G2 B | F4 | B G2 B | F4 | D z D z | D z D z | E E E E | D4 | B G2 B | %29
w: Scar- let|Run- ner girls are|we,|All in a|row \-|That's how we|grow.|When you've|heard our|names, of course you'll|see,|Just what it|
 A4 | B G2 B | A4 | ^F z F z | ^F z F z | ^F F F F | ^F4 | ^G z A z | =B z ^F z | A z =E z | z4 | %40
w: means, \-|We're full of|beans.|French beans,|broad beans,|there are lots of|these,|But we|mix with|nei- ther,||
 ^F z F z | ^F z F z | G G ^F A | G4 | =c z ^c z | d z =c z | c z F z | z4 | d3/2 B/ F D | D D2 F | %50
w: And we're|not re-|la- ted, if you|please,|To the|"has- beens"|ei- ther!||We're the Scar- let|Run- ners, The|
 D E =E G | F3 =C/ D/ | E D E C/ D/ | E D E =E/ E/ | F/ F/ ^F G B | B2 A2 | d3/2 B/ F D | D D2 F | %58
w: smart- est girls in|town; We can|run up hills, We can|run up bills, And the|o- ther girls run us|down. oh,|We're tip- top a-|one- ers, The|
 D E =E G | F3 ^F | G3/2 G/ G G | G G2 d | d c/ A/ F F | B4 | z4 | z4 || D z D z | D z D z | %68
w: men make such a|fuss, Though|we're the Scar- let|Run- ners, Please|don't run a- way from|us!|||We are|ve- ry,|
 E E E E | D4 | B G2 B | F4 | B G2 B | F4 | D z D z | D z D z | E E E E | D4 | B G2 B | A4 | %80
w: ve- ry much a-|live,|And, let us|state|Quite up- to-|date.|If you|ask how|ma- ny beans make|five,|Oh, we can|tell|
 B G2 B | A4 | ^F z F z | ^F z F z | ^F F F F | ^F4 | ^G z A z | =B z ^F z | A z =E z | z4 | %90
w: That ve- ry|well.|Scar- let|Run- ners,|can- not be sur-|passed|For their|ra- pid|grow- ing.||
 ^F z F z | ^F z F z | G G ^F A | G4 | =c z ^c z | d z =c z | c z =F z | z4 || d3/2 B/ F D | %99
w: Though you|may think|we're a tri- fle|fast,|Still we|keep things|go- ing!||We're the Scar- let|
 D D2 F | D E =E G | F3 =C/ D/ | E D E C/ D/ | E D E =E/ E/ | F/ F/ ^F G B | B2 A2 | d3/2 B/ F D | %107
w: Run- ners, The|smart- est girls in|town; We can|run up hills, We can|run up bills, And the|o- ther girls run us|down. oh,|We're tip- top a-|
 D D2 F | D E =E G | F3 ^F | G3/2 G/ G G | G G2 d | d c/ A/ F F | B4 || z4 | z4 | z4 | z4 | z4 | %119
w: one- ers, The|men make such a|fuss, Tho'|we're the Scar- let|Run- ners, Please|don't run a- way from|us!||||||
 z4 | z4 | z4 | z4 | z4 | z4 | z4 | z4 | z4 | z4 | z4 | z4 | z4 | z4 | z4 | z4 | z4 | z4 | z4 | %138
w: |||||||||||||||||||
 z4 | z4 | z4 | z4 | z4 | z4 | z4 | z4 | z4 | z4 | z4 | z4 | z4 | z4 | z4 | z4 | z4 | z4 | z4 | %157
w: |||||||||||||||||||
 z4 | z4 | z4 | z4 | z4 | z4 | z4 | z4 | z4 | z4 | z4 | z4 | z4 | z4 | z4 | z4 | z4 | z4 | z4 | %176
w: |||||||||||||||||||
 z4 | z4 |] %178
w: ||
V:3
!ff! [FBdf]>[Bd] [Fc][DB] | [DG] [DB]2 [DF] | [B,D][CE] [^C=E][_EG] | [DF]3!<(! (C/D/!<)! | %4
 [A,E])[^G,D] [A,E]!<(!(C/D/!<)! | [A,E])[^G,D] [A,E][B,=E] |!<(! [B,F][B,^F] [B,G][EGd]!<)! | %7
 [EGd]2 [EFc]2 | !>![df]>[Bd] [Fc][DB] | [DG] [DB]2 [DF] | [B,D][CE] [^C=E][_EG] | [DF]3 [C^F] | %12
 [=B,=FG]>g [Gcg][Gdf] |!>(! [ce] G2!>)!!p! [GBd] | dc/A/ FF | [DB] z !>![Bdb] z || %16
!mf! [DF] z [D^F] z | [DG] z [D^G] z | [EA]e [EGc][EAd] | [DB](F GA) | (B G2 B) | [EF]4 | %22
 ([DB] [B,G]2 [_DB]) | [A,EF]4 | [DF] z [D^F] z | [DG] z [D^G] z | [EA]e [EGc][EAd] | [DB](F GA) | %28
 ([DB] [B,G]2 [DB]) | A4 | ([DB] [B,G]2 [DB]) | [^CA]4 |"_a tempo" [D^Fd] z [DF^c] z | %33
 [D^F] z [DFA] z | [D^F=B][DF^c] [DFB][DF] | [D^FA]4 | [^G,^G] z [A,A] z | [=B,=B] z ^F z | %38
 A(G/^F/ =E)(E/F/ | G)!<(!(=E/^F/ G/A/=B/^c/)!<)! | [D^Fd] z [DF^c] z | [D^F] z [DFA] z | %42
 z [_B,DG] z [CD^F] | D(=E/^F/ G/A/_B/G/) | [=C=c]2 [^C^c]2 | [Dd]2 [=C=c]2 | f(F/=E/ F)(F/G/ | %47
 A)(A/B/!<(! c/d/_e/=e/)!<)! |!f! [FBdf]>[Bd] [Fc][DB] | [DG] [DB]2 [DF] | [B,D][CE] [^C=E][_EG] | %51
 [DF]3!<(! C/D/!<)! | [A,E][^G,D] [A,E]!<(!C/D/!<)! | [A,E][^G,D] [A,E][B,=E] | %54
!<(! [B,F][B,^F] [B,G][EGd]!<)! | [EGd]2 [EFc]2 | !>![df]>[Bd] [Fc][DB] | [DG] [DB]2 [DF] | %58
 [B,D][CE] [^C=E][_EG] | [DF]3 [C^F] | [=B,=FG]>g [Gcg][Gdf] |!>(! [ce] G2!>)!!p! [GBd] | %62
 dc/A/ FF | [DB] z!f! !>![Bdb] z | z [F,B,D] z!>(! [F,B,D] | z [F,B,D]!>)! z [F,B,D] || %66
!mf! [DF] z [D^F] z | [DG] z [D^G] z | [EA]e [EGc][EAd] | [DB](F GA) | (B G2 B) | [EF]4 | %72
 ([DB] [B,G]2 [_DB]) | [A,EF]4 | [DF] z [D^F] z | [DG] z [D^G] z | [EA]e [EGc][EAd] | [DB](F GA) | %78
 ([DB] [B,G]2 [DB]) | A4 | ([DB] [B,G]2 [DB]) | [^CA]4 |"_a tempo" [D^Fd] z [DF^c] z | %83
 [D^F] z [DFA] z | [D^F=B][DF^c] [DFB][DF] | [D^FA]4 | [^G,^G] z [A,A] z | [=B,=B] z ^F z | %88
 A(G/^F/ =E)(E/F/ | G)!<(!(=E/^F/ G/A/=B/^c/)!<)! | [D^Fd] z [DF^c] z | [D^F] z [DFA] z | %92
 z [_B,DG] z [CD^F] | D(=E/^F/ G/A/_B/G/) | [=C=c]2 [^C^c]2 | [Dd]2 [=C=c]2 | f(F/=E/ F)(F/G/ | %97
 A)!<(!(A/B/ c/d/e/=e/)!<)! ||!f! [FBdf]>[Bd] [Fc][DB] | [DG] [DB]2 [DF] | [B,D][CE] [^C=E][_EG] | %101
 [DF]3!<(! C/D/!<)! | [A,E][^G,D] [A,E]!<(!C/D/!<)! | [A,E][^G,D] [A,E][B,=E] | %104
!<(! [B,F][B,^F] [B,G][EGd]!<)! | [EGd]2 [EFc]2 | !>![df]>[Bd] [Fc][DB] | [DG] [DB]2 [DF] | %108
 [B,D][CE] [^C=E][_EG] | [DF]3 [C^F] | [=B,=FG]>g [Gcg][Gdf] |!>(! [ce] G2!>)!!p! [GBd] | %112
 dc/A/ FF | [DB] z!f! !>![Bdb] z ||!mf!"^Dance" [DF] z [D^F] z | [DG] z [D^G] z | %116
 [EA]e [EGc][EAd] | [DB](F GA) | (B G2 B) | [EF]4 | ([DB] [B,G]2 [_DB]) | [A,EF]4 | %122
 [DF] z [D^F] z | [DG] z [D^G] z | [EA]e [EGc][EAd] | [DB](F GA) | ([DB] [B,G]2 [DB]) | A4 | %128
 ([DB] [B,G]2 [DB]) | [^CA]4 | [D^Fd] z [DF^c] z | [D^F] z [DFA] z | [D^F=B][DF^c] [DFB][DF] | %133
 [D^FA]4 | [^G,^G] z [A,A] z | [=B,=B] z ^F z | A(G/^F/ =E)(E/F/ | G)!<(!(=E/^F/ G/A/=B/^c/)!<)! | %138
 [D^Fd] z [DF^c] z | [D^F] z [DFA] z | _B[_B,DG] ^F[CDFA] | [DG](=E/^F/ G/A/_B/G/) | %142
 [=C=c]2 [^C^c]2 | [Dd]2 [=C=c]2 | f(F/=E/ F)(F/G/ | A)A/B/ c/d/_e/=e/ | !>![df]>!p![Bd] [Fc][DB] | %147
 [DG] [DB]2 [DF] | [B,D][CE] [^C=E][_EG] | [DF]3!<(! C/D/!<)! | [A,E][^G,D] [A,E]!<(!C/D/!<)! | %151
 [A,E][^G,D] [A,E][B,=E] |!<(! [B,F][B,^F] [B,G][EGd]!<)! | [EGd]2 [EFc]2 | !>![df]>[Bd] [Fc][DB] | %155
 [DG] [DB]2 [DF] | [B,D][CE] [^C=E][_EG] | [DF]3 [C^F] | [=B,=FG]>g [Gcg][Gdf] | %159
!>(! [ce] G2!>)!!p! [GBd] | dc/A/ FF | [DB]!f!(=e/g/ f)f |!8va(! !>![d'f']>[bd'] [fc'][db] | %163
 [dg] [db]2 [df] | [Bd][ce] [^c=e][_eg] | [df]3!<(! c/d/!<)! | [Ae][^Gd] [Ae]!<(!c/d/!<)! | %167
 [Ae][^Gd] [Ae][B=e] |!<(! [Bf][B^f] [Bg][egd']!<)! | [egd']2 [efc']2 | !>![d'f']>[bd'] [fc'][db] | %171
 [dg] [db]2 [df] | [Bd][ce] [^c=e][_eg] | [df]3 [c^f] | [=B=fg]>g' [gc'g'][gd'f'] | %175
 [c'e'] g2 [gbd'] | d'c'/a/ ff | [db] z !>![bd'b'] z!8va)! |] %178
V:4
 B,,F, F,,F, | B,,F, F,,F, | B,,F, F,,F, | B,,F, B, z | C,=B,, C, z | C,=B,, C,^C, | %6
 D,_D, C,[C,B,] | [F,B,]2 [F,A,]2 | !>!B,,F, F,,F, | B,,F, F,,F, | B,,F, F,,F, | B,,F, B,(_A, | %12
 [G,,G,])G, =A,=B, | CD E=E | [F,_E] z z [F,A,] | [B,,B,] z !>![F,B,D] z || B,,F, F,,F, | %17
 B,,F, F,,F, | C,F, F,,F, | B,,(F, G,A,) | B,,F, F,,F, | C,F, F,,F, | B,,F, F,,F, | C,F, F,,F, | %24
 B,,F, F,,F, | B,,F, F,,F, | C,F, F,,F, | B,,(F, G,A,) | G,,D, G,D, | z A,2 A, | z2 G,2 | z2 G,2 | %32
 D, A,2 A,, | D, A,2 A,, | D, A,2 A,, | D, A,2 A,, | D, z A,, z | D, z ^D, z | %38
 =E,[G,A,^C] A,,[G,A,] | ^C,[G,A,] A,,[G,A,] | D, A,2 A,, | D, A,2 D,, | G,, z A,, z | B,, z z2 | %44
 =C,4 | z2 B,2 | [F,,C,A,] z z2 | [F,C_E] z z2 | B,,F, F,,F, | B,,F, F,,F, | B,,F, F,,F, | %51
 B,,F, B, z | C,=B,, C, z | C,=B,, C,^C, | D,_D, C,[C,B,] | [F,B,]2 [F,A,]2 | !>!B,,F, F,,F, | %57
 B,,F, F,,F, | B,,F, F,,F, | B,,F, B,_A, | [G,,G,]G, A,=B, | CD E=E | [F,_E] z z [F,A,] | %63
 [B,,B,] z !>![F,B,D] z | B,, z F,, z | B,, z F,, z || B,,F, F,,F, | B,,F, F,,F, | C,F, F,,F, | %69
 B,,(F, G,A,) | B,,F, F,,F, | C,F, F,,F, | B,,F, F,,F, | C,F, F,,F, | B,,F, F,,F, | B,,F, F,,F, | %76
 C,F, F,,F, | B,,(F, G,A,) | G,,D, G,D, | z A,2 A, | z2 G,2 | z2 G,2 | D, A,2 A,, | D, A,2 A,, | %84
 D, A,2 A,, | D, A,2 A,, | D, z A,, z | D, z ^D, z | =E,[G,A,^C] A,,[G,A,] | ^C,[G,A,] A,,[G,A,] | %90
 D, A,2 A,, | D, A,2 D,, | G,, z A,, z | B,, z z2 | =C,4 | z2 B,2 | [F,,C,A,] z z2 | %97
 [F,C_E] z z2 || B,,F, F,,F, | B,,F, F,,F, | B,,F, F,,F, | B,,F, B, z | C,=B,, C, z | %103
 C,=B,, C,^C, | D,_D, C,[C,B,] | [F,B,]2 [F,A,]2 | !>!B,,F, F,,F, | B,,F, F,,F, | B,,F, F,,F, | %109
 B,,F, B,(_A, | [G,,G,])G, A,=B, | CD E=E | [F,_E] z z [F,A,] | %113
!ped! [B,,B,] z !>![F,B,D]!ped-up! z || B,,F, F,,F, | B,,F, F,,F, | C,F, F,,F, | B,,(F, G,A,) | %118
 B,,F, F,,F, | C,F, F,,F, | B,,F, F,,F, | C,F, F,,F, | B,,F, F,,F, | B,,F, F,,F, | C,F, F,,F, | %125
 B,,(F, G,A,) | G,,D, G,D, | z A,2 A, | z2 G,2 | z2 G,2 | D, A,2 A,, | D, A,2 A,, | D, A,2 A,, | %133
 D, A,2 A,, | D, z A,, z | D, z ^D, z | =E,[G,A,^C] A,,[G,A,] | ^C,[G,A,] A,,[G,A,] | D, A,2 A,, | %139
 D, A,2 D,, | G,, z A,, z | B,, z z2 | C,4 | z2 B,2 | [F,,C,A,] z z2 | [F,C_E] z z2 | %146
 !>!B,,F, F,,F, | B,,F, F,,F, | B,,F, F,,F, | B,,F, B, z | C,=B,, C, z | C,=B,, C,^C, | %152
 D,_D, C,[C,B,] | [F,B,]2 [F,A,]2 | !>!B,,F, F,,F, | B,,F, F,,F, | B,,F, F,,F, | B,,F, B,(_A, | %158
 [G,,G,])G, A,=B, | CD E=E | [F,_E] z z [F,A,] | [B,,B,](=E/G/ F)F | !>!B,,F, F,,F, | B,,F, F,,F, | %164
 B,,F, F,,F, | B,,F, B, z | C,=B,, C, z | C,=B,, C,^C, | D,_D, C,[C,B,] | [F,B,]2 [F,A,]2 | %170
 !>!B,,F, F,,F, | B,,F, F,,F, | B,,F, F,,F, | B,,F, B,(_A, | [G,,G,])G, A,=B, | CD E=E | %176
 [F,_E] z z [F,A,] |!ped! [B,,B,] z !>![F,B,D]!ped-up! z |] %178
V:5
 x4 | x4 | x4 | x4 | x4 | x4 | x4 | x4 | x4 | x4 | x4 | x4 | x4 | x4 | x4 | x4 || x4 | x4 | x4 | %19
 x4 | x4 | x4 | x4 | x4 | x4 | x4 | x4 | x4 | x4 | z [DF]2 [DF] | x4 | z"_rit." ^F G=E | x4 | x4 | %34
 x4 | x4 | z [D^F] x [DF] | z [D^F] z [A,=C] | x4 | x4 | x4 | x4 | x4 | x4 | z [=FA] z [FA] | %45
 z [FB] z [=EB] | x4 | x4 | x4 | x4 | x4 | x4 | x4 | x4 | x4 | x4 | x4 | x4 | x4 | x4 | x4 | x4 | %62
 [FA] z z E | x4 | x4 | x4 || x4 | x4 | x4 | x4 | x4 | x4 | x4 | x4 | x4 | x4 | x4 | x4 | x4 | %79
 z [DF]2 [DF] | x4 | z"_rit." ^F G=E | x4 | x4 | x4 | x4 | z [D^F] x [DF] | z [D^F] z [A,=C] | x4 | %89
 x4 | x4 | x4 | x4 | x4 | z [=FA] z [FA] | z [FB] z [=EB] | x4 | x4 || x4 | x4 | x4 | x4 | x4 | %103
 x4 | x4 | x4 | x4 | x4 | x4 | x4 | x4 | x4 | [FA] z z E | x4 || x4 | x4 | x4 | x4 | D4 | x4 | x4 | %121
 x4 | x4 | x4 | x4 | x4 | x4 | z [DF]2 [DF] | x4 | z ^F G=E | x4 | x4 | x4 | x4 | z [D^F] x [DF] | %135
 z [D^F] z [A,=C] | x4 | x4 | x4 | x4 | x4 | x4 | z [=FA] z [FA] | z [FB] z [=EB] | x4 | x4 | x4 | %147
 x4 | x4 | x4 | x4 | x4 | x4 | x4 | x4 | x4 | x4 | x4 | x4 | x4 | [FA] z z E | x4 |!8va(! x4 | x4 | %164
 x4 | x4 | x4 | x4 | x4 | x4 | x4 | x4 | x4 | x4 | x4 | x4 | [fa] z z e | x4!8va)! |] %178
V:6
 x4 | x4 | x4 | x4 | x4 | x4 | x4 | x4 | x4 | x4 | x4 | x4 | x4 | x4 | x4 | x4 || x4 | x4 | x4 | %19
 x4 | x4 | x4 | x4 | x4 | x4 | x4 | x4 | x4 | x4 | D,4 | =E,,4 | A,,4 | x4 | x4 | x4 | x4 | x4 | %37
 x4 | x4 | x4 | x4 | x4 | x4 | x4 | x4 | x4 | x4 | x4 | x4 | x4 | x4 | x4 | x4 | x4 | x4 | x4 | %56
 x4 | x4 | x4 | x4 | x4 | x4 | x4 | x4 | x4 | x4 || x4 | x4 | x4 | x4 | x4 | x4 | x4 | x4 | x4 | %75
 x4 | x4 | x4 | x4 | D,4 | =E,,4 | A,,4 | x4 | x4 | x4 | x4 | x4 | x4 | x4 | x4 | x4 | x4 | x4 | %93
 x4 | x4 | x4 | x4 | x4 || x4 | x4 | x4 | x4 | x4 | x4 | x4 | x4 | x4 | x4 | x4 | x4 | x4 | x4 | %112
 x4 | x4 || x4 | x4 | x4 | x4 | x4 | x4 | x4 | x4 | x4 | x4 | x4 | x4 | x4 | D,4 | =E,,4 | A,,4 | %130
 x4 | x4 | x4 | x4 | x4 | x4 | x4 | x4 | x4 | x4 | x4 | x4 | x4 | C,4 | x4 | x4 | x4 | x4 | x4 | %149
 x4 | x4 | x4 | x4 | x4 | x4 | x4 | x4 | x4 | x4 | x4 | x4 | x4 | x4 | x4 | x4 | x4 | x4 | x4 | %168
 x4 | x4 | x4 | x4 | x4 | x4 | x4 | x4 | x4 | x4 |] %178

